icons/editor/save.svg

<svg width="32" height="32" viewBox="0 0 32 32" fill="none" xmlns="http://www.w3.org/2000/svg">
<path fill-rule="evenodd" clip-rule="evenodd" d="M4 6C4 4.89543 4.89543 4 6 4H20.5858C21.1162 4 21.6249 4.21071 22 4.58579L27.4142 10C27.7893 10.3751 28 10.8838 28 11.4142V26C28 27.1046 27.1046 28 26 28H6C4.89543 28 4 27.1046 4 26V6ZM10 6H19V10H10V6ZM6 6H8V10C8 11.1046 8.89543 12 10 12H19C20.1046 12 21 11.1046 21 10V6.41421L26 11.4142V26H24V18C24 16.8954 23.1046 16 22 16H10C8.89543 16 8 16.8954 8 18V26H6V6ZM10 26H22V18H10V26Z" fill="black"/>
</svg>

<svg width="32" height="32" viewBox="0 0 32 32" xmlns="http://www.w3.org/2000/svg">
    <path fill-rule="evenodd" d="M4 6a2 2 0 012-2h14.586A2 2 0 0122 4.586L27.414 10A2 2 0 0128 11.414V26a2 2 0 01-2 2H6a2 2 0 01-2-2V6zm6 0h9v4h-9V6zM6 6h2v4a2 2 0 002 2h9a2 2 0 002-2V6.414l5 5V26h-2v-8a2 2 0 00-2-2H10a2 2 0 00-2 2v8H6V6zm4 20h12v-8H10v8z"/>
</svg>
